!!!COM: Music21
!!!OTL: jig_Emmet-The-Piper
!!!OMV: jig_Emmet-The-Piper
**kern
*clefG2
*k[f#c#]
*D:
*M6/8
=1
8cc#L
8a
8f#J
4.dd
=
8cc#L
8a
8f#J
4.e
=
4.a
4.a
=
8aL
8b
8cc#J
8aL
8f#
8eJ
=
8cc#L
8a
8f#J
8ddL
8ee
8ff#J
=
8eeL
8dd
8cc#J
8bL
8cc#
8ddJ
=
8eeL
8aa
8bbJ
4gg
8ee
!!linebreak:original
=
8ff#L
8ee
8ddJ
8eeL
8ff#
8ddJ
=||
*M6/8
8cc#L
8a
8f#J
4.dd
=
8cc#L
8a
8f#J
4.e
=
4.a
4.a
=
8aL
8b
8cc#J
8aL
8f#
8eJ
=
8cc#L
8a
8f#J
8ddL
8ee
8ff#J
=
8eeL
8dd
8cc#J
8bL
8cc#
8ddJ
!!linebreak:original
=
8eeL
8aa
8bbJ
4gg
8ee
=
8ff#L
8ee
8ddJ
8eeL
8cc#
8aJ
=||
8ddL
8ee
8ff#J
4.aa
=
8aaL
8bb
8ff#J
8aaL
8ff#
8ddJ
=
8aL
8dd
8ff#J
4.gg
=
8ff#L
8ee
8ddJ
8eeL
8dd
8bJ
=
8ddL
8ee
8ff#J
4.aa
!!linebreak:original
=
8aaL
8bb
8ff#J
8aaL
8ff#
8aaJ
=
8ggL
8ee
8ggJ
8ff#L
8dd
8ff#J
=
8eeL
8ff#
8ddJ
8cc#L
8ee
8aJ
=||
*M6/8
8cc#L
8a
8f#J
4.dd
=
8cc#L
8a
8f#J
4.e
=
4.a
4.a
=
8aL
8b
8cc#J
8aL
8f#
8eJ
!!linebreak:original
=
8cc#L
8a
8f#J
8ddL
8ee
8ff#J
=
8eeL
8dd
8cc#J
8bL
8cc#
8ddJ
=
8eeL
8aa
8bbJ
4gg
8ee
=
8ff#L
8ee
8ddJ
8eeL
8ff#
8ddJ
=||
*M6/8
8cc#L
8a
8f#J
4.dd
=
8cc#L
8a
8f#J
4.e
=
4.a
4.a
!!linebreak:original
=
8aL
8b
8cc#J
8aL
8f#
8eJ
=
8cc#L
8a
8f#J
8ddL
8ee
8ff#J
=
8eeL
8dd
8cc#J
8bL
8cc#
8ddJ
=
8eeL
8aa
8bbJ
4gg
8ee
=
8ff#L
8ee
8ddJ
8eeL
8cc#
8aJ
=||
8ddL
8ee
8ff#J
4.aa
=
8aaL
8bb
8ff#J
8aaL
8ff#
8ddJ
!!linebreak:original
=
8aL
8dd
8ff#J
4.gg
=
8ff#L
8ee
8ddJ
8eeL
8dd
8bJ
=
8ddL
8ee
8ff#J
4.aa
=
8aaL
8bb
8ff#J
8aaL
8ff#
8aaJ
=
8ggL
8ee
8ggJ
8ff#L
8dd
8ff#J
=
8eeL
8ff#
8ddJ
8cc#L
8ee
8aJ
=||
8dd
8r
8ff#
8bL
8ff#
8bJ
!!linebreak:original
=
8aL
8dd
8ff#J
8ggL
8ff#
8eeJ
=
8dd
8r
8ff#
8bL
8ff#
8bJ
=
8aL
8dd
8aJ
8ddL
8b
8aJ
=
8dd
8r
8ff#
8bL
8ff#
8bJ
=
8aL
8dd
8ff#J
8ggL
8ff#
8eeJ
=
8ff#L
8gg
8aaJ
8bbL
8aa
8ff#J
!!linebreak:original
=
8ggL
8ff#
8eeJ
8ff#L
8dd
8bJ
=||
*M6/8
8cc#L
8a
8f#J
4.dd
=
8cc#L
8a
8f#J
4.e
=
4.a
4.a
=
8aL
8b
8cc#J
8aL
8f#
8eJ
=
8cc#L
8a
8f#J
8ddL
8ee
8ff#J
=
8eeL
8dd
8cc#J
8bL
8cc#
8ddJ
!!linebreak:original
=
8eeL
8aa
8bbJ
4gg
8ee
=
8ff#L
8ee
8ddJ
8eeL
8ff#
8ddJ
=||
*M6/8
8cc#L
8a
8f#J
4.dd
=
8cc#L
8a
8f#J
4.e
=
4.a
4.a
=
8aL
8b
8cc#J
8aL
8f#
8eJ
=
8cc#L
8a
8f#J
8ddL
8ee
8ff#J
!!pagebreak:original
=
8eeL
8dd
8cc#J
8bL
8cc#
8ddJ
=
8eeL
8aa
8bbJ
4gg
8ee
=
8ff#L
8ee
8ddJ
8eeL
8cc#
8aJ
=||
8ddL
8ee
8ff#J
4.aa
=
8aaL
8bb
8ff#J
8aaL
8ff#
8ddJ
=
8aL
8dd
8ff#J
4.gg
=
8ff#L
8ee
8ddJ
8eeL
8dd
8bJ
!!linebreak:original
=
8ddL
8ee
8ff#J
4.aa
=
8aaL
8bb
8ff#J
8aaL
8ff#
8aaJ
=
8ggL
8ee
8ggJ
8ff#L
8dd
8ff#J
=
8eeL
8ff#
8ddJ
8cc#L
8ee
8aJ
=||
*M6/8
8cc#L
8a
8f#J
4.dd
=
8cc#L
8a
8f#J
4.e
=
4.a
4.a
!!linebreak:original
=
8aL
8b
8cc#J
8aL
8f#
8eJ
=
8cc#L
8a
8f#J
8ddL
8ee
8ff#J
=
8eeL
8dd
8cc#J
8bL
8cc#
8ddJ
=
8eeL
8aa
8bbJ
4gg
8ee
=
8ff#L
8ee
8ddJ
8eeL
8ff#
8ddJ
=||
*M6/8
8cc#L
8a
8f#J
4.dd
!!linebreak:original
=
8cc#L
8a
8f#J
4.e
=
4.a
4.a
=
8aL
8b
8cc#J
8aL
8f#
8eJ
=
8cc#L
8a
8f#J
8ddL
8ee
8ff#J
=
8eeL
8dd
8cc#J
8bL
8cc#
8ddJ
=
8eeL
8aa
8bbJ
4gg
8ee
=
8ff#L
8ee
8ddJ
8eeL
8cc#
8aJ
!!linebreak:original
=||
8ddL
8ee
8ff#J
4.aa
=
8aaL
8bb
8ff#J
8aaL
8ff#
8ddJ
=
8aL
8dd
8ff#J
4.gg
=
8ff#L
8ee
8ddJ
8eeL
8dd
8bJ
=
8ddL
8ee
8ff#J
4.aa
=
8aaL
8bb
8ff#J
8aaL
8ff#
8aaJ
=
8ggL
8ee
8ggJ
8ff#L
8dd
8ff#J
!!linebreak:original
=
8eeL
8ff#
8ddJ
8cc#L
8ee
8aJ
=||
8dd
8r
8ff#
8bL
8ff#
8bJ
=
8aL
8dd
8ff#J
8ggL
8ff#
8eeJ
=
8dd
8r
8ff#
8bL
8ff#
8bJ
=
8aL
8dd
8aJ
8ddL
8b
8aJ
=
8dd
8r
8ff#
8bL
8ff#
8bJ
!!linebreak:original
=
8aL
8dd
8ff#J
8ggL
8ff#
8eeJ
=
8ff#L
8gg
8aaJ
8bbL
8aa
8ff#J
=
8ggL
8ff#
8eeJ
8ff#L
8dd
8bJ
=||
*-
